X:13444
T:Polska fr J\"amtland
R:Polska
O:Sweden
M:3/4
A:J\"amtland
K:G
G|d>d (3BcB (3ABA | G>G (3def g>G|\
d>d (3BcB (3ABA |1 G>A (3BAG B>A:|2 G<F D3 :|
|:d-|\
(3def g>a b>g| f>a (3gfe d2-| (3def g>a b>g| \
f>a (3gfe d2- | (3def g>e d>f| 
e>c {Bc}B>A B>c|\
(3def g>e d>f | e>c {Bc}B>A B>c|\
(3dcd e>c A>F | (3AFA G3:|
